X:1
T:The Ladle Song
M:2/4
L:1/8
K:C
 G| cc ed| cG EG| cc fe| BA G| G| cc ce| dB G E/2F/2| GG AG| E/2E/2 DC||\

